novelwriter/assets/icons/typicons_light/typ_puzzle.svg

<?xml version="1.0" encoding="UTF-8" standalone="no"?>
<svg
   xmlns:dc="http://purl.org/dc/elements/1.1/"
   xmlns:cc="http://creativecommons.org/ns#"
   xmlns:rdf="http://www.w3.org/1999/02/22-rdf-syntax-ns#"
   xmlns:svg="http://www.w3.org/2000/svg"
   xmlns="http://www.w3.org/2000/svg"
   version="1.2"
   width="24"
   height="24"
   viewBox="0 0 24 24"
   id="svg6422">
  <metadata
     id="metadata6428">
    <rdf:RDF>
      <cc:Work
         rdf:about="">
        <dc:format>image/svg+xml</dc:format>
        <dc:type
           rdf:resource="http://purl.org/dc/dcmitype/StillImage" />
        <dc:title></dc:title>
      </cc:Work>
    </rdf:RDF>
  </metadata>
  <defs
     id="defs6426" />
  <path
     d="m 18.129032,10.709677 c 0.469677,0 0.908387,0.187097 1.269677,0.504517 0.708388,0.428387 0.988388,-0.04387 0.988388,-0.504517 V 8.451613 c 0,-1.0645162 -0.870968,-1.935484 -1.935484,-1.935484 h -3.548387 c -0.459355,0 -0.934194,-0.2787096 -0.504517,-0.9883871 0.31742,-0.3612903 0.504517,-0.7987096 0.504517,-1.2696774 C 14.903226,3.0103226 13.603871,2 12,2 10.396129,2 9.096774,3.0103226 9.096774,4.2580645 9.096774,4.6451613 9.219355,5.0012903 9.425806,5.32 10.08,6.1883871 9.60129,6.516129 9.096774,6.516129 H 5.5483869 c -1.0645162,0 -1.9354839,0.8709678 -1.9354839,1.935484 v 2.258064 c 0,0.504517 0.3277419,0.983226 1.1974194,0.314839 0.3174193,-0.192258 0.6735483,-0.314839 1.0606451,-0.314839 1.2464516,0 2.2580645,1.300646 2.2580645,2.903226 0,1.602581 -1.0116129,2.903226 -2.2580645,2.903226 -0.4696774,0 -0.9083871,-0.187097 -1.2696774,-0.504516 C 3.892903,15.583226 3.612903,16.055484 3.612903,16.516129 v 3.548387 C 3.612903,21.129032 4.4838707,22 5.5483869,22 H 9.096774 C 9.60129,22 10.08,21.672258 9.410322,20.803871 9.219355,20.485161 9.096774,20.129032 9.096774,19.741935 c 0,-1.247741 1.299355,-2.258064 2.903226,-2.258064 1.603871,0 2.903226,1.010323 2.903226,2.258064 0,0.470968 -0.187097,0.908388 -0.504517,1.269678 C 13.969032,21.72129 14.443871,22 14.903226,22 h 3.548387 c 1.064516,0 1.935484,-0.870968 1.935484,-1.935484 v -3.548387 c 0,-0.504516 -0.327742,-0.983226 -1.19742,-0.314839 -0.317419,0.192258 -0.673548,0.314839 -1.060645,0.314839 -1.246452,0 -2.258064,-1.300645 -2.258064,-2.903226 0,-1.60258 1.011612,-2.903226 2.258064,-2.903226 z"
     id="path6420"
     style="stroke-width:1.29032;fill:#4271ae;fill-opacity:1" />
</svg>

<?xml version="1.0" encoding="UTF-8"?>
<svg width="24" height="24" version="1.2" viewBox="0 0 24 24" xmlns="http://www.w3.org/2000/svg">
 <path d="m18.129 10.71c0.46968 0 0.90839 0.1871 1.2697 0.50452 0.70839 0.42839 0.98839-0.04387 0.98839-0.50452v-2.2581c0-1.0645-0.87097-1.9355-1.9355-1.9355h-3.5484c-0.45936 0-0.93419-0.27871-0.50452-0.98839 0.31742-0.36129 0.50452-0.79871 0.50452-1.2697 0-1.2477-1.2994-2.2581-2.9032-2.2581s-2.9032 1.0103-2.9032 2.2581c0 0.3871 0.12258 0.74323 0.32903 1.0619 0.65419 0.86839 0.17548 1.1961-0.32903 1.1961h-3.5484c-1.0645 0-1.9355 0.87097-1.9355 1.9355v2.2581c0 0.50452 0.32774 0.98323 1.1974 0.31484 0.31742-0.19226 0.67355-0.31484 1.0606-0.31484 1.2465 0 2.2581 1.3006 2.2581 2.9032 0 1.6026-1.0116 2.9032-2.2581 2.9032-0.46968 0-0.90839-0.1871-1.2697-0.50452-0.70839-0.42839-0.98839 0.043871-0.98839 0.50452v3.5484c0 1.0645 0.87097 1.9355 1.9355 1.9355h3.5484c0.50452 0 0.98323-0.32774 0.31355-1.1961-0.19097-0.31871-0.31355-0.67484-0.31355-1.0619 0-1.2477 1.2994-2.2581 2.9032-2.2581s2.9032 1.0103 2.9032 2.2581c0 0.47097-0.1871 0.90839-0.50452 1.2697-0.42968 0.70968 0.045162 0.98839 0.50452 0.98839h3.5484c1.0645 0 1.9355-0.87097 1.9355-1.9355v-3.5484c0-0.50452-0.32774-0.98323-1.1974-0.31484-0.31742 0.19226-0.67355 0.31484-1.0606 0.31484-1.2465 0-2.2581-1.3006-2.2581-2.9032 0-1.6026 1.0116-2.9032 2.2581-2.9032z" fill="#4271ae" stroke-width="1.2903"/>
</svg>
